azure-patterns/svg-global-increase.svg

<svg xmlns="http://www.w3.org/2000/svg" viewBox="0 0 33 32">
                                
                            
  <path d="M11.8855 20.1247C10.4785 20.1247 9.15878 19.8626 7.92633 19.3385C6.69388 18.8145 5.61747 18.0965 4.6971 17.1846C3.77673 16.2727 3.05207 15.2062 2.52312 13.9851C1.99417 12.764 1.7297 11.4564 1.7297 10.0623C1.7297 8.66829 1.99417 7.36072 2.52312 6.13962C3.05207 4.91851 3.77673 3.85201 4.6971 2.94012C5.61747 2.02822 6.69388 1.31023 7.92633 0.786152C9.15878 0.262074 10.4785 3.53869e-05 11.8855 3.53869e-05C13.2925 3.53869e-05 14.6122 0.262074 15.8447 0.786152C17.0771 1.31023 18.1536 2.02822 19.0739 2.94012C19.9943 3.85201 20.719 4.91851 21.2479 6.13962C21.7769 7.36072 22.0413 8.66829 22.0413 10.0623C22.0413 11.4564 21.7769 12.764 21.2479 13.9851C20.719 15.2062 19.9943 16.2727 19.0739 17.1846C18.1536 18.0965 17.0771 18.8145 15.8447 19.3385C14.6122 19.8626 13.2925 20.1247 11.8855 20.1247ZM4.85579 14.0873C5.25779 14.7791 5.74707 15.3948 6.32362 15.9346C6.90017 16.4744 7.54814 16.9225 8.26751 17.2789C8.02419 16.7653 7.81525 16.2438 7.6407 15.7145C7.46615 15.1852 7.32069 14.6428 7.20432 14.0873H4.85579ZM3.76086 10.0623C3.76086 10.3978 3.78202 10.7332 3.82434 11.0686C3.86665 11.404 3.93013 11.7394 4.01476 12.0748H6.90282C6.83934 11.404 6.80761 10.7332 6.80761 10.0623C6.80761 9.402 6.83934 8.73118 6.90282 8.04988H4.01476C3.93013 8.38529 3.86665 8.7207 3.82434 9.05611C3.78202 9.39152 3.76086 9.72693 3.76086 10.0623ZM11.8855 2.0125C11.6528 2.0125 11.4359 2.08587 11.2349 2.23261C11.0339 2.37935 10.8435 2.57326 10.6636 2.81434C10.4838 3.05541 10.3198 3.32531 10.1717 3.62404C10.0236 3.92276 9.88873 4.21887 9.76708 4.51235C9.64542 4.80584 9.54492 5.08884 9.46558 5.36136C9.38623 5.63388 9.3254 5.85923 9.28309 6.03742H14.4879C14.4456 5.85923 14.3848 5.63388 14.3055 5.36136C14.2261 5.08884 14.1256 4.80584 14.004 4.51235C13.8823 4.21887 13.7474 3.92276 13.5993 3.62404C13.4512 3.32531 13.2872 3.05541 13.1074 2.81434C12.9275 2.57326 12.7345 2.37935 12.5282 2.23261C12.3219 2.08587 12.1077 2.0125 11.8855 2.0125ZM8.94985 8.04988C8.90753 8.38529 8.87844 8.7207 8.86257 9.05611C8.8467 9.39152 8.83877 9.72693 8.83877 10.0623C8.83877 10.3978 8.8467 10.7332 8.86257 11.0686C8.87844 11.404 8.90753 11.7394 8.94985 12.0748H14.8212C14.8635 11.7394 14.8926 11.404 14.9085 11.0686C14.9243 10.7332 14.9323 10.3978 14.9323 10.0623C14.9323 9.72693 14.9243 9.39152 14.9085 9.05611C14.8926 8.7207 14.8635 8.38529 14.8212 8.04988H8.94985ZM20.0102 10.0623C20.0102 9.72693 19.989 9.39152 19.9467 9.05611C19.9044 8.7207 19.8409 8.38529 19.7563 8.04988H16.8682C16.9317 8.73118 16.9634 9.402 16.9634 10.0623C16.9634 10.7332 16.9317 11.404 16.8682 12.0748H19.7563C19.8409 11.7394 19.9044 11.404 19.9467 11.0686C19.989 10.7332 20.0102 10.3978 20.0102 10.0623ZM11.8855 18.1122C12.1077 18.1122 12.3219 18.0388 12.5282 17.8921C12.7345 17.7453 12.9275 17.5514 13.1074 17.3103C13.2872 17.0693 13.4512 16.7994 13.5993 16.5006C13.7474 16.2019 13.8823 15.9058 14.004 15.6123C14.1256 15.3189 14.2261 15.0358 14.3055 14.7633C14.3848 14.4908 14.4456 14.2655 14.4879 14.0873H9.28309C9.3254 14.2655 9.38623 14.4908 9.46558 14.7633C9.54492 15.0358 9.64542 15.3189 9.76708 15.6123C9.88873 15.9058 10.0236 16.2019 10.1717 16.5006C10.3198 16.7994 10.4838 17.0693 10.6636 17.3103C10.8435 17.5514 11.0339 17.7453 11.2349 17.8921C11.4359 18.0388 11.6528 18.1122 11.8855 18.1122ZM15.5035 17.2789C16.2229 16.9225 16.8709 16.4744 17.4474 15.9346C18.024 15.3948 18.5132 14.7791 18.9152 14.0873H16.5667C16.4503 14.6428 16.3049 15.1852 16.1303 15.7145C15.9558 16.2438 15.7468 16.7653 15.5035 17.2789ZM18.9152 6.03742C18.5132 5.34564 18.024 4.72984 17.4474 4.19004C16.8709 3.65024 16.2229 3.20216 15.5035 2.84578C15.7468 3.35938 15.9558 3.88084 16.1303 4.41016C16.3049 4.93947 16.4503 5.4819 16.5667 6.03742H18.9152ZM8.26751 2.84578C7.54814 3.20216 6.90017 3.65024 6.32362 4.19004C5.74707 4.72984 5.25779 5.34564 4.85579 6.03742H7.20432C7.32069 5.4819 7.46615 4.93947 7.6407 4.41016C7.81525 3.88084 8.02419 3.35938 8.26751 2.84578ZM32.1971 12.0748V20.1247H30.166V15.518L14.9323 30.5957L8.83877 24.5584L1.4282 31.9007L3.62396e-05 30.4857L8.83877 21.7283L14.9323 27.7657L28.722 14.0873H24.0725V12.0748H32.1971Z"></path>
</svg>

<svg xmlns="http://www.w3.org/2000/svg" viewBox="0 0 33 32"><path d="M11.886 20.125a10.01 10.01 0 0 1-3.96-.787 10.22 10.22 0 0 1-3.229-2.153 10.118 10.118 0 0 1-2.174-3.2 9.762 9.762 0 0 1-.793-3.923c0-1.394.264-2.701.793-3.922a10.117 10.117 0 0 1 2.174-3.2c.92-.912 1.997-1.63 3.23-2.154A10.011 10.011 0 0 1 11.885 0c1.407 0 2.726.262 3.959.786a10.222 10.222 0 0 1 3.229 2.154c.92.912 1.645 1.979 2.174 3.2a9.76 9.76 0 0 1 .793 3.922 9.76 9.76 0 0 1-.793 3.923 10.116 10.116 0 0 1-2.174 3.2 10.22 10.22 0 0 1-3.23 2.154 10.011 10.011 0 0 1-3.958.786zm-7.03-6.038a8.069 8.069 0 0 0 3.412 3.192 13.6 13.6 0 0 1-.627-1.565c-.175-.529-.32-1.071-.437-1.627H4.856zM3.76 10.062c0 .336.021.671.063 1.007.043.335.106.67.19 1.006h2.889a21.35 21.35 0 0 1 0-4.025H4.015c-.085.335-.148.67-.19 1.006a8.03 8.03 0 0 0-.064 1.006zm8.124-8.05c-.232 0-.45.074-.65.22a2.74 2.74 0 0 0-.571.582c-.18.241-.344.511-.492.81-.148.299-.283.595-.405.888a8.233 8.233 0 0 0-.301.85c-.08.272-.14.497-.183.675h5.205a14.489 14.489 0 0 0-.182-.676 8.262 8.262 0 0 0-.302-.849c-.122-.293-.257-.59-.405-.888a5.253 5.253 0 0 0-.492-.81 2.645 2.645 0 0 0-.579-.581 1.094 1.094 0 0 0-.643-.22zM8.95 8.05c-.042.335-.072.67-.087 1.006a21.287 21.287 0 0 0 0 2.013c.015.335.045.67.087 1.006h5.871c.043-.336.072-.671.088-1.006a21.381 21.381 0 0 0 0-2.013c-.016-.335-.046-.67-.088-1.006H8.95zm11.06 2.012c0-.335-.021-.67-.063-1.006a8.419 8.419 0 0 0-.19-1.006h-2.889a21.342 21.342 0 0 1 0 4.025h2.888c.085-.336.148-.671.19-1.006.043-.336.064-.671.064-1.007zm-8.125 8.05c.223 0 .437-.073.643-.22.207-.147.4-.34.58-.582.18-.24.343-.51.491-.81.148-.298.283-.594.405-.888.122-.293.222-.576.302-.849.079-.272.14-.498.182-.676H9.283c.042.178.103.404.183.676.079.273.18.556.301.85.122.293.257.589.405.888.148.298.312.568.492.81.18.24.37.434.57.581.202.147.419.22.652.22zm3.619-.833a8.065 8.065 0 0 0 3.411-3.192h-2.348a15.029 15.029 0 0 1-.437 1.627c-.174.53-.383 1.051-.626 1.565zm3.411-11.242a8.068 8.068 0 0 0-3.411-3.191c.243.513.452 1.035.626 1.564.175.53.32 1.072.437 1.627h2.348zM8.268 2.846a8.066 8.066 0 0 0-3.412 3.191h2.348c.117-.555.262-1.098.437-1.627.174-.53.383-1.05.627-1.564zm23.93 9.229v8.05h-2.032v-4.607L14.932 30.596 8.84 24.558l-7.41 7.343L0 30.486l8.839-8.758 6.093 6.038 13.79-13.679h-4.65v-2.012h8.125z"/></svg>
